X:14054
%2676
T:Carnival tune (fr Limoux?)
R:Other
O:France
M:6/8
A:Aude
K:C
Gc|\
eBd cEA|(G3 G)Gc|eBd cAc|(B3 B)GA|\
BdB fdB|(A3 A)GA|BGA Bcd|e3 zGc|\
e
